X: 17340
T: High Caul Cap
R: polka
M: 2/4
K: Cmajor
A,/B,/|:C>D E G|E/D/C/D/ E C/D/|EDD C/D/|EDD A,/B,/|
C>D E G|E/D/C/D/ E B,/C/|A,G,G, B,/C/|A,G,G, E/F/|
G/F/E F/E/D|E/D/C/D/ E C/D/|EDD C/D/|EDD E/F/|
G/F/E F/E/D|E/D/C/D/ E B,/C/|A,G,G, B,/C/|A,G,G, A,/B,/:|

